X:845
T:Reel 845
M:4/4
K:Dmaj
L:1/8
F|ABAG FGAF|G2BG BcdB|ABAG FGAF|GBAG FDDG|ABAF DFAF|GFAF GEEG|FGFE DFdB|AGFE FDD|c|d2AG FGAF|GBAF GEEc| (3dcB AF BGAF|GBAG FDDE|FAAc BAGF|EFGA BEEc|dcdB ABcA| (3Bcd AG FDD|G|FADF  (3AGA dF|GFGF EDDE|FGAc BAGF|GBAG FDDE|FAdc  (3Bcd AF|GBAF E2EG|FAdc Bdce|dBAG FDD|
